X:1
P: Mabou Coal Mines
C: as played by Johnny Wilmot, Dunlay Colln.
C: arr. T. Traub 2-26-05
R: Strathspey
M: 4/4
K: A
L: 1/8
|: F|"A"E/E/E E>F "F#m"A/A/A A>c|"Bm"B/B/B c>A "D"B<FF>A|"A"E/E/E E>F "D"A/A/A A<f|"E"e<Ac>B "A"c>A A :|
|: f|"A"e<Ac>B A>Bc>e|"Bm"fe "E"f>BB>a|"A"e<Ac>B A>ce>c|"D"d>f"E"e>d "A"c<A A :|
